docs/public/resources/icons/vscode-extension.svg

<svg width="16" height="16" viewBox="0 0 16 16"
  xmlns="http://www.w3.org/2000/svg" fill="currentColor">
  <path d="M15 4.95703C15 4.58711 14.8563 4.24054 14.5949 3.97992L12.0096 1.39234C11.4879 0.86922 10.5788 0.86922 10.0571 1.39234L8 3.45119V3.32321C8 2.55068 7.37187 1.922 6.6 1.922H2.4C1.62813 1.922 1 2.55068 1 3.32321V13.5988C1 14.3713 1.62813 15 2.4 15H12.6667C13.4385 15 14.0667 14.3713 14.0667 13.5988V9.39514C14.0667 8.62261 13.4385 7.99393 12.6667 7.99393H12.5379L14.5949 5.93508C14.8553 5.67445 15 5.32602 15 4.95703ZM2.4 2.85521H6.6C6.85667 2.85521 7.06667 3.06446 7.06667 3.32228V7.99299H1.93333V3.32228C1.93333 3.06446 2.14333 2.85521 2.4 2.85521ZM1.93333 13.5979V8.92714H7.06667V14.0649H2.4C2.14333 14.0649 1.93333 13.8547 1.93333 13.5979ZM13.1333 9.39421V13.5979C13.1333 13.8547 12.9233 14.0649 12.6667 14.0649H8V8.92714H12.6667C12.9233 8.92714 13.1333 9.13638 13.1333 9.39421ZM8 7.99299V6.46287L9.5288 7.99299H8ZM13.9351 5.2737L11.3488 7.86221C11.1789 8.03223 10.8859 8.03223 10.716 7.86221L8.12973 5.2737C8.0448 5.18963 7.99813 5.07753 7.99813 4.95796C7.99813 4.83839 8.0448 4.7263 8.12973 4.64129L10.716 2.05278C10.8009 1.96777 10.9129 1.92106 11.0324 1.92106C11.1519 1.92106 11.2639 1.96777 11.3488 2.05278L13.9351 4.64129C14.02 4.72536 14.0667 4.83746 14.0667 4.95703C14.0667 5.0766 14.02 5.1887 13.9351 5.2737Z" stroke="currentColor" stroke-width="0.25"/>
</svg>

<svg xmlns="http://www.w3.org/2000/svg" width="16" height="16" fill="currentColor" viewBox="0 0 16 16"><path stroke="currentColor" stroke-width=".25" d="M15 4.957c0-.37-.144-.716-.405-.977L12.01 1.392c-.522-.523-1.431-.523-1.953 0L8 3.452v-.129c0-.772-.628-1.401-1.4-1.401H2.4c-.772 0-1.4.629-1.4 1.401V13.6c0 .77.628 1.4 1.4 1.4h10.267c.771 0 1.4-.629 1.4-1.401V9.395c0-.772-.629-1.401-1.4-1.401h-.13l2.058-2.059c.26-.26.405-.609.405-.978ZM2.4 2.855h4.2c.257 0 .467.21.467.467v4.671H1.933v-4.67c0-.259.21-.468.467-.468Zm-.467 10.743v-4.67h5.134v5.137H2.4a.47.47 0 0 1-.467-.467Zm11.2-4.204v4.204c0 .257-.21.467-.466.467H8V8.927h4.667c.256 0 .466.21.466.467ZM8 7.993v-1.53l1.529 1.53zm5.935-2.72-2.586 2.59a.456.456 0 0 1-.633 0L8.13 5.272a.445.445 0 0 1 0-.632l2.586-2.588a.444.444 0 0 1 .633 0l2.586 2.588a.445.445 0 0 1 0 .632Z"/></svg>
